X:1
T:Title
%%score { ( 1 3 ) | ( 2 4 ) }
L:1/8
M:4/4
K:Ab
V:1 treble nm="Grand Piano"
V:3 treble 
V:2 bass 
V:4 bass 
V:1
 z4 z2[Q:1/4=100] [Ec]>[DB] | [CA]3 [DB] [Ec]2 [EB]>[EA] | F2 A2 E2 c>d | cB B>E B2 B>c | %4
 [DB][CA] [FA]>[DF] [CE]2 [Ec]>[DB] | [CA]3 [DB] [Ec]2 [EB]>[EA] |[M:3/4] F2 d2 c2 |[M:1/4] c>d | %8
[M:4/4] ec [FB]>[Fd] [Ec]2 [DEB]2 |[M:5/8] [CEA]-[CEA]- [CEA]3 |[M:12/8] z3 z d2- d6 | %11
 z3 z e2- e6 |[M:9/8] z [Ee]2- [Ee] [Ee]2 [Ed] [DF]2 |[M:3/8] [DG] [Ec]2- | [Ec] [DB]2- | %15
[M:4/4] [DB] [DB]2 [CA] [FA][EG][DF][CE]- |[M:2/4] [CE]c cB |[M:6/4] z d- d4- d3 z z2 | %18
 z e- e4- e3 z z2 |[M:9/8] z9 |[M:3/8] z3 |[M:9/8] z A2- A6 |] %22
V:2
 z4 z2 [A,,A,]>[A,,A,] | [A,,A,]3 [A,,A,] [A,,A,]2 [C,A,]>[C,A,] | %2
 [D,A,D]2 [F,A,D]2[K:treble] [A,C]2 [A,E]>[A,F] | %3
 [E,G,E][E,G,D] [E,G,D]>[E,G,D] [E,G,D]2 [E,G,D]>[E,G,E] | %4
 [A,,A,][A,,A,] [D,A,]>[D,A,] [A,,A,]2 [A,,A,]>[A,,A,] | [A,,A,]3 [A,,A,] A,,2 [C,A,]>[C,A,] | %6
[M:3/4] [D,A,D]2 [F,A,D]2 [A,E]2 |[M:1/4] [A,E]>[A,B,E] | %8
[M:4/4] [A,CE][A,E] [D,D]>[D,A,] [E,A,]2 E,2 |[M:5/8] A,,-A,,- A,,3 | %10
[M:12/8] z6 [E,G,] [E,B,]2 [E,A,] [E,G,]2 | z6 [A,E] [A,D]2 [A,C] [A,C]2 | %12
[M:9/8] z [C,A,]2- [C,A,] [B,,G,]2 [B,,G,] [B,,G,]2 |[M:3/8] [B,,B,] [E,G,]2- | [E,G,] [E,G,]2- | %15
[M:4/4] [E,G,] [A,,A,]2 [A,,A,] [D,A,][D,A,][D,A,][A,,A,]- |[M:2/4] [A,,A,] z z2 | %17
[M:6/4] z2 z [E,G,] [E,B,]2 [E,A,] .[E,G,]3 z2 | z2 z [A,E] [A,D]2 [A,C] .[A,C]3 [C,A,]2- | %19
[M:9/8] [C,A,] [B,,G,]2 [B,,G,] [B,,G,]2 [B,,B,] [E,G,]2- |[M:3/8] [E,G,] [E,G,]2- | %21
[M:9/8] [E,G,]3 G, F,2 F, E,2 |] %22
V:3
 x8 | x8 | x8 | x8 | x8 | x8 |[M:3/4] x6 |[M:1/4] x2 |[M:4/4] x8 |[M:5/8] x5 | %10
[M:12/8] ccB .c3 B G2 F E2 | ddc .d3 c B2 A E2 |[M:9/8] x9 |[M:3/8] x3 | x3 |[M:4/4] x8 | %16
[M:2/4] x4 |[M:6/4] .c3 B G2 F E2 ddc | .d3 c B2 A .E3 [Ee]2- | %19
[M:9/8] [Ee] [Ee]2 [Ed] [DF]2 [DG] [Ec]2- |[M:3/8] [Ec] [DB]2- |[M:9/8] [DB] [A,C]2 E D2 D C2 |] %22
V:4
 x8 | x8 | x4[K:treble] x4 | x8 | x8 | x8 |[M:3/4] x6 |[M:1/4] x2 |[M:4/4] x8 |[M:5/8] x5 | %10
[M:12/8] x12 | x12 |[M:9/8] x9 |[M:3/8] x3 | x3 |[M:4/4] x8 |[M:2/4] x4 |[M:6/4] x12 | x12 | %19
[M:9/8] x9 |[M:3/8] x3 |[M:9/8] z A,,2- A,,6 |] %22

